X: 1
T: Aunt Viola's Waltz
C: Sarah Alden
O: arr. Joy Adams / Rustic Roots
R: waltz
Z: 2019 John Chambers <jc:trillian.mit.edu>
M: 3/4
L: 1/8
K: Ador
EG |\
"Am"A4 cA | "E"B2 B2- B(c/B/ | "F"A)B AG EG | "D"F4 GA |\
"Am"A4 cA | "E"B2 B2- B(c/B/ | "F"A)B A"G"G EG | "Am"A4 :|
|: cd |\
"Am"e2 e2 ge | "D"f2 c2 fc | "F"Ac eA BA | "E"B4 cd |\
"Am"e2 e2 ge | "D"f2 c2 fc | "F"Ac e"E"A BA | "Am"A4 :|
